src/assets/duotone/Shop.svg

<svg width="24" height="24" viewBox="0 0 24 24"  xmlns="http://www.w3.org/2000/svg">
<path opacity="0.4" d="M21.3699 11.3904V17.3804C21.3699 20.1404 19.1299 22.3804 16.3699 22.3804H7.62988C4.86988 22.3804 2.62988 20.1404 2.62988 17.3804V11.4604C3.38988 12.2804 4.46988 12.7504 5.63988 12.7504C6.89988 12.7504 8.10988 12.1204 8.86988 11.1104C9.54988 12.1204 10.7099 12.7504 11.9999 12.7504C13.2799 12.7504 14.4199 12.1504 15.1099 11.1504C15.8799 12.1404 17.0699 12.7504 18.3099 12.7504C19.5199 12.7504 20.6199 12.2604 21.3699 11.3904Z" />
<path d="M14.9899 1.25H8.98985L8.24985 8.61C8.18985 9.29 8.28985 9.93 8.53985 10.51C9.11985 11.87 10.4799 12.75 11.9999 12.75C13.5399 12.75 14.8699 11.89 15.4699 10.52C15.6499 10.09 15.7599 9.59 15.7699 9.08V8.89L14.9899 1.25Z" />
<path opacity="0.6" d="M22.3598 8.27L22.0698 5.5C21.6498 2.48 20.2798 1.25 17.3498 1.25H13.5098L14.2498 8.75C14.2598 8.85 14.2698 8.96 14.2698 9.15C14.3298 9.67 14.4898 10.15 14.7298 10.58C15.4498 11.9 16.8498 12.75 18.3098 12.75C19.6398 12.75 20.8398 12.16 21.5898 11.12C22.1898 10.32 22.4598 9.31 22.3598 8.27Z" />
<path opacity="0.6" d="M6.59014 1.25C3.65014 1.25 2.29014 2.48 1.86014 5.53L1.59014 8.28C1.49014 9.35 1.78014 10.39 2.41014 11.2C3.17014 12.19 4.34014 12.75 5.64014 12.75C7.10014 12.75 8.50014 11.9 9.21014 10.6C9.47014 10.15 9.64014 9.63 9.69014 9.09L10.4701 1.26H6.59014V1.25Z" />
<path d="M11.3501 16.6602C10.0801 16.7902 9.12012 17.8702 9.12012 19.1502V22.3802H14.8701V19.5002C14.8801 17.4102 13.6501 16.4202 11.3501 16.6602Z" />
</svg>

<?xml version="1.0" encoding="UTF-8"?>
<svg width="24" height="24" viewBox="0 0 24 24" xmlns="http://www.w3.org/2000/svg">
 <path d="m21.37 11.39v5.99c0 2.76-2.24 5-5 5h-8.74c-2.76 0-5-2.24-5-5v-5.92c0.76 0.82 1.84 1.29 3.01 1.29 1.26 0 2.47-0.63 3.23-1.64 0.68 1.01 1.84 1.64 3.13 1.64 1.28 0 2.42-0.6 3.11-1.6 0.77 0.99 1.96 1.6 3.2 1.6 1.21 0 2.31-0.49 3.06-1.36z" opacity=".4"/>
 <path d="m14.99 1.25h-6l-0.74 7.36c-0.06 0.68 0.04 1.32 0.29 1.9 0.58 1.36 1.94 2.24 3.46 2.24 1.54 0 2.87-0.86 3.47-2.23 0.18-0.43 0.29-0.93 0.3-1.44v-0.19l-0.78-7.64z"/>
 <path d="m22.36 8.27-0.29-2.77c-0.42-3.02-1.79-4.25-4.72-4.25h-3.84l0.74 7.5c0.01 0.1 0.02 0.21 0.02 0.4 0.06 0.52 0.22 1 0.46 1.43 0.72 1.32 2.12 2.17 3.58 2.17 1.33 0 2.53-0.59 3.28-1.63 0.6-0.8 0.87-1.81 0.77-2.85z" opacity=".6"/>
 <path d="m6.5901 1.25c-2.94 0-4.3 1.23-4.73 4.28l-0.27 2.75c-0.1 1.07 0.19 2.11 0.82 2.92 0.76 0.99 1.93 1.55 3.23 1.55 1.46 0 2.86-0.85 3.57-2.15 0.26-0.45 0.43-0.97 0.48-1.51l0.77996-7.83h-3.88v-0.01z" opacity=".6"/>
 <path d="m11.35 16.66c-1.27 0.13-2.23 1.21-2.23 2.49v3.23h5.75v-2.88c0.01-2.09-1.22-3.08-3.52-2.84z"/>
</svg>
